src/front_assets/svg/play-next.svg

<?xml version="1.0" encoding="utf-8"?><!-- Uploaded to: SVG Repo, www.svgrepo.com, Generator: SVG Repo Mixer Tools -->
<svg width="800px" height="800px" viewBox="0 0 24 24" fill="none" xmlns="http://www.w3.org/2000/svg">
<path d="M22 12C22 14.7578 20.8836 17.2549 19.0782 19.064M2 12C2 9.235 3.12222 6.73208 4.93603 4.92188M19.1414 5.00003C19.987 5.86254 20.6775 6.87757 21.1679 8.00003M5 19.1415C4.08988 18.2493 3.34958 17.1845 2.83209 16" stroke="#1C274C" stroke-width="1.5" stroke-linecap="round" stroke-linejoin="round"/>
<path d="M16.2849 8.04397C17.3458 9.05877 18 10.4488 18 11.9822C18 13.5338 17.3302 14.9386 16.2469 15.9564M7.8 16C6.68918 14.9789 6 13.556 6 11.9822C6 10.4266 6.67333 9.01843 7.76162 8" stroke="#1C274C" stroke-width="1.5" stroke-linecap="round" stroke-linejoin="round"/>
<path d="M13.6563 10.4511C14.5521 11.1088 15 11.4376 15 12C15 12.5624 14.5521 12.8912 13.6563 13.5489C13.4091 13.7304 13.1638 13.9014 12.9384 14.0438C12.7407 14.1688 12.5168 14.298 12.2849 14.4249C11.3913 14.914 10.9444 15.1586 10.5437 14.8878C10.1429 14.617 10.1065 14.0502 10.0337 12.9166C10.0131 12.596 10 12.2817 10 12C10 11.7183 10.0131 11.404 10.0337 11.0834C10.1065 9.94977 10.1429 9.38296 10.5437 9.1122C10.9444 8.84144 11.3913 9.08599 12.2849 9.57509C12.5168 9.70198 12.7407 9.83123 12.9384 9.95619C13.1638 10.0986 13.4091 10.2696 13.6563 10.4511Z" stroke="#1C274C" stroke-width="1.5"/>
</svg>

<svg xmlns="http://www.w3.org/2000/svg" width="800" height="800" fill="none" viewBox="0 0 24 24"><path stroke="#1C274C" stroke-linecap="round" stroke-linejoin="round" stroke-width="1.5" d="M22 12a9.97 9.97 0 0 1-2.922 7.064M2 12a9.97 9.97 0 0 1 2.936-7.078M19.141 5a10 10 0 0 1 2.027 3M5 19.142A10 10 0 0 1 2.832 16M16.285 8.044C17.345 9.059 18 10.449 18 11.982c0 1.552-.67 2.957-1.753 3.974M7.8 16C6.69 14.979 6 13.556 6 11.982 6 10.427 6.673 9.018 7.762 8"/><path stroke="#1C274C" stroke-width="1.5" d="M13.656 10.451C14.552 11.11 15 11.438 15 12s-.448.891-1.344 1.549c-.247.181-.492.352-.718.495a12 12 0 0 1-.653.38c-.894.49-1.34.735-1.741.464s-.437-.838-.51-1.971c-.02-.321-.034-.635-.034-.917s.013-.596.034-.917c.072-1.133.109-1.7.51-1.97.4-.272.847-.027 1.74.462.233.127.457.256.654.381.226.143.471.314.718.495Z"/></svg>
